src/components/Footer/images/logo-10.svg

<svg xmlns="http://www.w3.org/2000/svg" width="470" height="262" fill="none"><mask id="a" width="234" height="58" x="127" y="102" maskUnits="userSpaceOnUse" style="mask-type:luminance"><path fill="#fff" d="M360.933 102H127v58h233.933v-58Z"/></mask><g fill="#2C2C2C" mask="url(#a)"><path d="m250.816 148.893.607 10.007a39.09 39.09 0 0 1-9.628 1.044c-9.989 0-15.315-4.209-15.315-14.463 0-8.037.152-16.869.228-21.702h-5.176v-7.583c7.772-1.289 10.218-5.685 11.374-14.177h8.547c-.303 3.507-.568 8.586-.568 12.035h9.079v9.725h-9.211v17.514c0 6.784 1.363 8.642 6.046 8.642a8.305 8.305 0 0 0 4.017-1.042Zm47.69-10.861v-8.871c0-11.371-4.984-16.508-19.105-16.508-7.923 0-13.572 1.382-22.423 1.382.493 8 .51 17.876.474 23.977-.039 6.104-.209 17.363-.474 20.965h15.163c-.342-3.602-.663-13.97-.607-20.965 0-3.979 0-8.795.209-15.258a17.216 17.216 0 0 1 5.516-.908c5.307 0 7.012 2.482 7.012 9.343v6.823c0 6.218-.207 17.363-.474 20.965h15.163c-.189-3.602-.491-13.97-.454-20.965v.02Zm-101.442 1.991c-1.632 0-4.398 0-5.8-.114v.303c0 6.444 4.226 10.52 12.054 10.52a24.558 24.558 0 0 0 12.113-3.26l.549 10.063a40.258 40.258 0 0 1-14.937 2.446c-15.902 0-23.541-5.441-24.867-20.186-1.896 0-4.549-.19-8.284-.209-.095 2.596-.19 4.891-.19 6.805-.092 4.205.13 8.412.664 12.586-8.718 0-15.467.967-22.329.967-12.982 0-17.55-5.384-17.55-14.558s7.335-13.704 23.18-13.704h2.181v-.947c0-6.293-1.896-8.928-8.304-8.928a28.18 28.18 0 0 0-12.452 3.318l-.53-10.046a47.055 47.055 0 0 1 16.358-2.465c13.893 0 19.125 4.568 19.125 17.174v2.045c3.393 0 5.875 0 8.149.209 1.403-12.433 7.582-19.389 23.182-19.389 12.851 0 18.763 5.401 18.763 13.533.078 9.458-7.107 13.837-21.075 13.837Zm-43.349 10.651c-.228-3.051-.134-7.467-.095-11.239h-1.895c-6.596 0-9.231 2.218-9.231 6.121 0 3.905 2.066 5.688 6.9 5.688a18.175 18.175 0 0 0 4.321-.57Zm41.7-18.309c6.101 0 9.021-2.047 9.021-6.444 0-3.128-2.123-4.833-5.402-4.833-5.781 0-7.789 4.624-7.789 10.935v.228c1.098.095 2.652.114 4.112.114h.058ZM344.262 158.9c-8.719 0-15.466.967-22.328.967-12.984 0-17.553-5.383-17.553-14.556 0-9.174 7.318-13.704 23.183-13.704h2.179v-.947c0-6.293-1.895-8.928-8.302-8.928a28.179 28.179 0 0 0-12.453 3.317l-.531-10.047a47.049 47.049 0 0 1 16.452-2.502c13.913 0 19.125 4.568 19.125 17.174 0 6.747-.435 12.528-.435 16.603a84.202 84.202 0 0 0 .549 12.7l.114-.077Zm-14.633-8.302c-.226-3.051-.132-7.466-.095-11.238h-1.895c-6.596 0-9.231 2.217-9.231 6.121 0 3.905 2.066 5.686 6.9 5.686a18.076 18.076 0 0 0 4.265-.493l.056-.076ZM349.057 122.375a6.062 6.062 0 0 1-1.156-2.008 7.314 7.314 0 0 1-.399-2.427 7.091 7.091 0 0 1 .418-2.426c.269-.7.667-1.344 1.176-1.895a5.673 5.673 0 0 1 1.894-1.345 6.462 6.462 0 0 1 4.986 0 5.537 5.537 0 0 1 1.895 1.345 6.013 6.013 0 0 1 1.175 1.895c.281.777.422 1.599.418 2.426a7.141 7.141 0 0 1-.418 2.427 6.054 6.054 0 0 1-1.175 2.008 5.665 5.665 0 0 1-1.895 1.346 6.462 6.462 0 0 1-4.986 0 5.537 5.537 0 0 1-1.933-1.346Zm2.312.418a4.81 4.81 0 0 0 2.067.435 4.657 4.657 0 0 0 2.067-.435 4.597 4.597 0 0 0 1.515-1.156 5.065 5.065 0 0 0 .948-1.688 6.287 6.287 0 0 0 .323-1.989 6.194 6.194 0 0 0-.323-1.895 5.025 5.025 0 0 0-.948-1.668 4.495 4.495 0 0 0-1.515-1.157 5.163 5.163 0 0 0-4.114 0 4.498 4.498 0 0 0-1.516 1.157 4.99 4.99 0 0 0-.948 1.668 6.133 6.133 0 0 0-.322 1.895 5.84 5.84 0 0 0 .701 2.88 4.729 4.729 0 0 0 2.065 1.953Zm-.131-8.644h2.028a3.283 3.283 0 0 1 2.254.626c.449.406.698.988.682 1.592a2.5 2.5 0 0 1-.131.854c-.087.24-.217.466-.379.663a2.157 2.157 0 0 1-.551.474 2.03 2.03 0 0 1-.644.265l1.895 3.051a1.113 1.113 0 0 1-.321.133h-.303c-.178 0-.352-.039-.513-.114a1.001 1.001 0 0 1-.417-.416l-1.516-2.521h-.928v2.956h-1.12l-.036-7.563Zm2.254 3.468c1.025 0 1.535-.435 1.535-1.326a1.048 1.048 0 0 0-.396-.891 2.21 2.21 0 0 0-1.309-.302h-.986v2.463l1.156.056Z"/></g></svg>

<svg width="470" height="262" viewBox="0 0 470 262" fill="none" xmlns="http://www.w3.org/2000/svg">
<mask id="mask0_1_445" style="mask-type:luminance" maskUnits="userSpaceOnUse" x="127" y="102" width="234" height="58">
<path d="M360.933 102H127V160H360.933V102Z" fill="white"/>
</mask>
<g mask="url(#mask0_1_445)">
<path d="M250.816 148.893L251.423 158.9C248.27 159.646 245.036 159.996 241.795 159.944C231.806 159.944 226.48 155.735 226.48 145.481C226.48 137.444 226.632 128.612 226.708 123.779H221.532C221.532 121.598 221.532 118.472 221.532 116.196C229.304 114.907 231.75 110.511 232.906 102.019H241.453C241.15 105.526 240.885 110.605 240.885 114.054H249.964V123.779H240.753V141.293C240.753 148.077 242.116 149.935 246.799 149.935C248.204 149.933 249.587 149.575 250.816 148.893ZM298.506 138.032C298.506 134.24 298.506 129.161 298.506 129.161C298.506 117.79 293.522 112.653 279.401 112.653C271.478 112.653 265.829 114.035 256.978 114.035C257.471 122.035 257.488 131.911 257.452 138.012C257.413 144.116 257.243 155.375 256.978 158.977H272.141C271.799 155.375 271.478 145.007 271.534 138.012C271.534 134.033 271.534 129.217 271.743 122.754C273.52 122.153 275.383 121.846 277.259 121.846C282.566 121.846 284.271 124.328 284.271 131.189C284.271 131.189 284.271 135.493 284.271 138.012C284.271 144.23 284.064 155.375 283.797 158.977H298.96C298.771 155.375 298.469 145.007 298.506 138.012V138.032ZM197.064 140.023C195.432 140.023 192.666 140.023 191.264 139.909V140.212C191.264 146.656 195.49 150.732 203.318 150.732C207.57 150.712 211.744 149.589 215.431 147.472L215.98 157.535C211.2 159.287 206.131 160.118 201.043 159.981C185.141 159.981 177.502 154.54 176.176 139.795C174.28 139.795 171.627 139.605 167.892 139.586C167.797 142.182 167.702 144.477 167.702 146.391C167.61 150.596 167.832 154.803 168.366 158.977C159.648 158.977 152.899 159.944 146.037 159.944C133.055 159.944 128.487 154.56 128.487 145.386C128.487 136.212 135.822 131.682 151.667 131.682H153.848V130.735C153.848 124.442 151.952 121.807 145.544 121.807C141.194 121.937 136.931 123.071 133.092 125.125L132.562 115.079C137.827 113.298 143.364 112.463 148.92 112.614C162.813 112.614 168.045 117.182 168.045 129.788C168.045 130.488 168.045 131.17 168.045 131.833C171.438 131.833 173.92 131.833 176.194 132.042C177.597 119.609 183.776 112.653 199.376 112.653C212.227 112.653 218.139 118.054 218.139 126.186C218.217 135.644 211.032 140.023 197.064 140.023ZM153.715 150.674C153.487 147.623 153.581 143.207 153.62 139.435C153.088 139.435 152.35 139.435 151.725 139.435C145.129 139.435 142.494 141.653 142.494 145.556C142.494 149.461 144.56 151.244 149.394 151.244C150.851 151.228 152.301 151.037 153.715 150.674ZM195.415 132.365C201.516 132.365 204.436 130.318 204.436 125.921C204.436 122.793 202.313 121.088 199.034 121.088C193.253 121.088 191.245 125.712 191.245 132.023V132.251C192.343 132.346 193.897 132.365 195.357 132.365H195.415ZM344.262 158.9C335.543 158.9 328.796 159.867 321.934 159.867C308.95 159.867 304.381 154.484 304.381 145.311C304.381 136.137 311.699 131.607 327.564 131.607H329.743V130.66C329.743 124.367 327.848 121.732 321.441 121.732C317.089 121.861 312.828 122.996 308.988 125.049L308.457 115.002C313.748 113.198 319.32 112.349 324.909 112.5C338.822 112.5 344.034 117.068 344.034 129.674C344.034 136.421 343.599 142.202 343.599 146.277C343.462 150.519 343.645 154.763 344.148 158.977L344.262 158.9ZM329.629 150.598C329.403 147.547 329.497 143.132 329.534 139.36C329.004 139.36 328.264 139.36 327.639 139.36C321.043 139.36 318.408 141.577 318.408 145.481C318.408 149.386 320.474 151.167 325.308 151.167C326.744 151.172 328.175 151.008 329.573 150.674L329.629 150.598Z" fill="white"/>
<path d="M349.057 122.375C348.546 121.786 348.154 121.105 347.901 120.367C347.632 119.586 347.497 118.766 347.502 117.94C347.499 117.113 347.64 116.293 347.92 115.514C348.189 114.814 348.587 114.17 349.096 113.619C349.627 113.045 350.273 112.587 350.99 112.274C352.585 111.607 354.381 111.607 355.976 112.274C356.695 112.583 357.341 113.041 357.871 113.619C358.377 114.172 358.776 114.814 359.046 115.514C359.327 116.291 359.468 117.113 359.464 117.94C359.466 118.768 359.325 119.588 359.046 120.367C358.787 121.107 358.389 121.788 357.871 122.375C357.339 122.95 356.694 123.408 355.976 123.721C354.381 124.388 352.585 124.388 350.99 123.721C350.257 123.417 349.598 122.957 349.057 122.375ZM351.369 122.793C352.017 123.089 352.722 123.238 353.436 123.228C354.149 123.243 354.855 123.095 355.503 122.793C356.083 122.518 356.599 122.124 357.018 121.637C357.44 121.14 357.761 120.568 357.966 119.949C358.18 119.307 358.289 118.636 358.289 117.96C358.281 117.314 358.171 116.676 357.966 116.065C357.759 115.452 357.438 114.886 357.018 114.397C356.601 113.907 356.085 113.513 355.503 113.24C354.19 112.67 352.699 112.67 351.389 113.24C350.807 113.513 350.29 113.907 349.873 114.397C349.453 114.886 349.13 115.452 348.925 116.065C348.719 116.676 348.61 117.314 348.603 117.96C348.585 118.965 348.827 119.957 349.304 120.84C349.776 121.687 350.497 122.37 351.369 122.793ZM351.238 114.149H352.316H353.266C354.068 114.074 354.87 114.296 355.52 114.775C355.969 115.181 356.218 115.763 356.202 116.367C356.208 116.657 356.164 116.947 356.071 117.221C355.984 117.461 355.854 117.687 355.692 117.884C355.537 118.072 355.35 118.232 355.141 118.358C354.944 118.482 354.725 118.573 354.497 118.623L356.392 121.674C356.293 121.735 356.183 121.78 356.071 121.807H355.768C355.59 121.807 355.416 121.768 355.255 121.693C355.077 121.6 354.932 121.453 354.838 121.277L353.322 118.756H352.394V121.712H351.274L351.238 114.149ZM353.492 117.617C354.517 117.617 355.027 117.182 355.027 116.291C355.05 115.947 354.901 115.613 354.631 115.4C354.236 115.166 353.778 115.06 353.322 115.098H352.773H352.336V117.561L353.492 117.617Z" fill="white"/>
</g>
</svg>
